icons/svg/seamark/bridge_opening.svg

<?xml version="1.0" encoding="UTF-8" standalone="no"?>
<svg
   xmlns:dc="http://purl.org/dc/elements/1.1/"
   xmlns:cc="http://creativecommons.org/ns#"
   xmlns:rdf="http://www.w3.org/1999/02/22-rdf-syntax-ns#"
   xmlns:svg="http://www.w3.org/2000/svg"
   xmlns="http://www.w3.org/2000/svg"
   xmlns:sodipodi="http://sodipodi.sourceforge.net/DTD/sodipodi-0.dtd"
   xmlns:inkscape="http://www.inkscape.org/namespaces/inkscape"
   width="580"
   height="580"
   id="svg2"
   version="1.1"
   inkscape:version="0.48.4 r9939"
   sodipodi:docname="bridge_bascule.svg">
  <defs
     id="defs13">
    <inkscape:path-effect
       effect="gears"
       id="path-effect3774"
       is_visible="true"
       teeth="6"
       phi="-1.2" />
    <inkscape:path-effect
       effect="bend_path"
       id="path-effect3772"
       is_visible="false"
       bendpath="m 95.790098,316.51174 c 144.429032,-206.42506 223.313032,-11.7428 339.548092,0"
       prop_scale="1.19"
       scale_y_rel="false"
       vertical="false"
       bendpath-nodetypes="cc" />
  </defs>
  <sodipodi:namedview
     pagecolor="#ffffff"
     bordercolor="#666666"
     borderopacity="1"
     objecttolerance="10"
     gridtolerance="10"
     guidetolerance="10"
     inkscape:pageopacity="0"
     inkscape:pageshadow="2"
     inkscape:window-width="1920"
     inkscape:window-height="1004"
     id="namedview11"
     showgrid="false"
     inkscape:zoom="0.81379312"
     inkscape:cx="548.50479"
     inkscape:cy="384.03857"
     inkscape:window-x="1680"
     inkscape:window-y="0"
     inkscape:window-maximized="1"
     inkscape:current-layer="svg2"
     inkscape:snap-object-midpoints="true"
     inkscape:snap-page="true" />
  <metadata
     id="metadata2975">image/svg+xmlen<rdf:RDF>
  <cc:Work
     rdf:about="">
    <dc:format>image/svg+xml</dc:format>
    <dc:type
       rdf:resource="http://purl.org/dc/dcmitype/StillImage" />
    <dc:title />
  </cc:Work>
</rdf:RDF>
</metadata>
  <path
     style="color:#000000;fill:#bfbfbf;fill-opacity:1;fill-rule:nonzero;stroke:none;stroke-width:40;marker:none;visibility:visible;display:inline;overflow:visible;enable-background:accumulate"
     d="m 81.65625,386.25 c 36.36104,78.91347 115.91495,133.21875 209.03125,133.21875 93.1116,0 172.71169,-54.31269 209.09375,-133.21875 z"
     id="rect3788"
     inkscape:connector-curvature="0"
     sodipodi:nodetypes="cscc" />
  <path
     style="color:#000000;fill:#2c2c2c;fill-opacity:1;fill-rule:nonzero;stroke:none;stroke-width:10;marker:none;visibility:visible;display:inline;overflow:visible;enable-background:accumulate"
     d="M 163 362.1875 C 149.19679 372.92332 129.23827 376 116.96875 376 C 105.14488 376 86.213041 373.12804 72.5 363.3125 C 76.627129 375.6124 81.773726 387.43399 87.8125 398.6875 C 98.262338 402.3526 109.1679 403.59375 116.96875 403.59375 C 129.23827 403.59375 149.19679 400.51708 163 389.78125 C 176.80321 400.51708 196.73048 403.59375 209 403.59375 C 209.82017 403.59375 210.58476 403.5745 211.375 403.5625 C 235.70623 403.19309 246.08733 397.23972 255 389.8125 C 255.43135 390.14799 255.86959 390.46059 256.3125 390.78125 C 258.52705 392.38454 260.90336 393.80908 263.34375 395.0625 C 264.3199 395.56387 265.28076 396.01943 266.28125 396.46875 C 266.87102 396.73407 267.4661 396.97092 268.0625 397.21875 C 268.48002 397.39201 268.89232 397.58511 269.3125 397.75 C 272.37537 398.95338 275.49333 399.92562 278.59375 400.71875 C 280.65465 401.24596 282.70878 401.69406 284.71875 402.0625 C 285.72374 402.24672 286.70535 402.4146 287.6875 402.5625 C 289.65179 402.8583 291.57376 403.086 293.40625 403.25 C 295.23874 403.414 296.97823 403.51233 298.625 403.5625 C 299.44838 403.5876 300.26441 403.59375 301.03125 403.59375 C 301.79809 403.59375 302.58287 403.5877 303.40625 403.5625 C 305.04351 403.5126 306.80401 403.41235 308.625 403.25 C 308.6351 403.2491 308.64625 403.2509 308.65625 403.25 C 310.48873 403.086 312.37947 402.8583 314.34375 402.5625 C 315.3259 402.4146 316.33876 402.24672 317.34375 402.0625 C 319.35371 401.69406 321.37661 401.24596 323.4375 400.71875 C 326.52884 399.92794 329.66448 398.94857 332.71875 397.75 C 334.75492 396.95095 336.76645 396.06524 338.71875 395.0625 C 341.15914 393.80908 343.5042 392.38454 345.71875 390.78125 C 346.16166 390.46059 346.5999 390.14799 347.03125 389.8125 C 347.4626 390.14799 347.90084 390.46059 348.34375 390.78125 C 350.55831 392.38454 352.90336 393.80908 355.34375 395.0625 C 357.29606 396.06524 359.30757 396.95095 361.34375 397.75 C 364.39802 398.94857 367.53366 399.92794 370.625 400.71875 C 372.6859 401.24596 374.70878 401.69406 376.71875 402.0625 C 377.72374 402.24672 378.7366 402.4146 379.71875 402.5625 C 381.58472 402.8435 383.408 403.0571 385.15625 403.21875 C 385.24965 403.22775 385.34447 403.2418 385.4375 403.25 C 385.501 403.256 385.56169 403.244 385.625 403.25 C 387.38864 403.40422 389.06655 403.51406 390.65625 403.5625 C 391.47963 403.5876 392.26441 403.59375 393.03125 403.59375 C 405.30077 403.59375 425.2593 400.54833 439.0625 389.8125 C 452.8657 400.54833 472.79298 403.59375 485.0625 403.59375 C 486.88138 403.59375 488.88944 403.52399 491 403.375 C 496.3882 393.88115 501.13942 383.97755 505.15625 373.6875 C 497.744 375.37261 490.61533 376 485.0625 376 C 472.79298 376 452.8657 372.92332 439.0625 362.1875 C 425.25935 372.92337 405.30077 376 393.03125 376 C 391.50689 376 389.85962 375.9473 388.125 375.84375 C 388.0543 375.83975 387.97728 375.84775 387.90625 375.84375 C 386.21422 375.73872 384.46411 375.56352 382.625 375.34375 C 378.81474 374.88844 374.74679 374.17941 370.625 373.125 C 368.89712 372.68298 367.13509 372.15898 365.40625 371.59375 C 363.01101 370.81065 360.63682 369.91886 358.3125 368.875 C 356.31151 367.97635 354.3589 366.98633 352.46875 365.875 C 351.52367 365.31934 350.59476 364.7372 349.6875 364.125 C 349.23387 363.8189 348.78666 363.50816 348.34375 363.1875 C 347.90084 362.86684 347.4626 362.52299 347.03125 362.1875 C 346.16855 362.85849 345.28226 363.5128 344.375 364.125 C 343.46774 364.7372 342.53883 365.31934 341.59375 365.875 C 339.7036 366.98633 337.75099 367.97635 335.75 368.875 C 333.74901 369.77365 331.71415 370.57731 329.65625 371.28125 C 327.59835 371.98519 325.4984 372.59779 323.4375 373.125 C 319.31571 374.17941 315.24776 374.88844 311.4375 375.34375 C 309.53237 375.57141 307.71512 375.73891 305.96875 375.84375 C 305.09557 375.89615 304.22963 375.94365 303.40625 375.96875 C 302.58287 375.99385 301.79809 376 301.03125 376 C 299.49756 376 297.84012 375.9486 296.09375 375.84375 C 294.34738 375.73891 292.49888 375.57141 290.59375 375.34375 C 286.78349 374.88844 282.71554 374.17941 278.59375 373.125 C 276.53285 372.59779 274.46415 371.98519 272.40625 371.28125 C 270.01858 370.46451 267.64899 369.48704 265.34375 368.40625 C 263.67528 367.624 262.02477 366.80824 260.4375 365.875 C 259.49242 365.31934 258.56351 364.7372 257.65625 364.125 C 257.20262 363.8189 256.75541 363.50816 256.3125 363.1875 C 255.86959 362.86684 255.43135 362.52299 255 362.1875 C 254.1373 362.85849 253.25101 363.5128 252.34375 364.125 C 251.43649 364.7372 250.50758 365.31934 249.5625 365.875 C 247.67235 366.98633 245.71974 367.97635 243.71875 368.875 C 241.71776 369.77365 239.6829 370.57731 237.625 371.28125 C 235.5671 371.98519 233.4984 372.59779 231.4375 373.125 C 227.31571 374.17941 223.24776 374.88844 219.4375 375.34375 C 217.53237 375.57141 215.68387 375.73891 213.9375 375.84375 C 213.06432 375.89615 212.19838 375.94365 211.375 375.96875 C 210.55162 375.99389 209.76684 376 209 376 C 196.73048 376 176.80321 372.92332 163 362.1875 z "
     id="path5" />
  <path
     style="color:#000000;fill:#2c2c2c;fill-opacity:1;fill-rule:nonzero;stroke:none;stroke-width:10;marker:none;visibility:visible;display:inline;overflow:visible;enable-background:accumulate"
     d="M 152.6875 418 C 139.87501 427.96527 121.78216 431.31928 109.4375 431.75 C 116.36753 440.58083 123.92871 448.88239 132.0625 456.59375 C 141.31988 454.08009 147.28349 450.12834 152.6875 445.625 C 166.4907 456.36083 186.41799 459.40625 198.6875 459.40625 C 210.95702 459.40625 230.91554 456.36083 244.71875 445.625 C 258.52196 456.36083 278.44923 459.40625 290.71875 459.40625 C 302.98827 459.40625 322.91554 456.36083 336.71875 445.625 C 350.52195 456.36083 370.48048 459.40625 382.75 459.40625 C 395.01951 459.40625 414.9468 456.36083 428.75 445.625 C 435.01527 450.49799 442.52896 453.76278 450.03125 455.90625 C 457.89474 448.38866 465.24078 440.31983 471.96875 431.75 C 459.62469 431.3155 441.55355 427.95832 428.75 418 C 414.9468 428.73583 395.01951 431.8125 382.75 431.8125 C 370.48048 431.8125 350.52195 428.73583 336.71875 418 C 322.91554 428.73583 302.98827 431.8125 290.71875 431.8125 C 278.44923 431.8125 258.52196 428.73583 244.71875 418 C 230.91554 428.73583 210.95702 431.8125 198.6875 431.8125 C 186.41799 431.8125 166.4907 428.73583 152.6875 418 z "
     id="path7" />
  <path
     style="color:#000000;fill:#2c2c2c;fill-opacity:1;fill-rule:nonzero;stroke:none;stroke-width:10;marker:none;visibility:visible;display:inline;overflow:visible;enable-background:accumulate"
     d="m 230.16412,142.66981 -94.68049,86.12203 -66.29613,0.0519 c -1.584811,5.86396 -2.937669,11.8301 -4.0625,17.875 l 69.375,0.59375 -13.78125,17.84375 -58.1875,-0.78125 c -0.879588,8.21361 -1.34375,16.57256 -1.34375,25.03125 0,1.98848 0.01293,3.9616 0.0625,5.9375 2.196066,0.008 4.754731,0.0277 6.75,0.0312 28.038175,1.65924 28.369531,14.54434 28.40625,17.875 l 0,68.875 51.5,0 c -0.49407,-33.44675 -0.45742,-66.01314 -0.3125,-98.5 l 33.32097,0.125 79.76211,-110.22797 z m 119.16537,3.43194 -31.68861,28.53914 70.04657,104.67156 2.40625,3.65625 4.375,0.34375 40.09375,3.125 c -1.16283,31.62686 -1.03125,64.09636 -1.03125,95.6875 l 52.15625,0 0,-68.875 c 0,-4.05415 2.8145,-17.57482 32.65625,-18.53125 0.42386,-0.002 0.98559,-7.8e-4 1.53125,0 0.0397,-1.76915 0.0625,-3.53331 0.0625,-5.3125 0,-9.05077 -0.55728,-17.98162 -1.5625,-26.75 L 445.78125,261.9375 433.625,247.15625 516,246.75 c -1.12592,-6.05523 -2.47506,-12.03254 -4.0625,-17.90625 l -92.96875,0.46875 z"
     id="path9"
     inkscape:connector-curvature="0"
     sodipodi:nodetypes="cccccccscccccccccccccccccsccsccccccc" />
  <path
     inkscape:connector-curvature="0"
     d="m 238.90577,271.25462 v 34.17244 h 92.35794 v -34.17244 c 0,-6.46505 -5.54146,-12.00653 -12.00652,-12.00653 H 250.9123 c -6.46506,0 -12.00653,5.54148 -12.00653,12.00653 z"
     id="path7-8"
     style="color:#000000;fill:#2c2c2c;fill-opacity:1;fill-rule:nonzero;stroke:none;stroke-width:10;marker:none;visibility:visible;display:inline;overflow:visible;enable-background:accumulate" />
  <path
     style="font-size:medium;font-style:normal;font-variant:normal;font-weight:normal;font-stretch:normal;text-indent:0;text-align:start;text-decoration:none;line-height:normal;letter-spacing:normal;word-spacing:normal;text-transform:none;direction:ltr;block-progression:tb;writing-mode:lr-tb;text-anchor:start;baseline-shift:baseline;color:#000000;fill:#2c2c2c;fill-opacity:1;fill-rule:nonzero;stroke:none;stroke-width:10;marker:none;visibility:visible;display:inline;overflow:visible;enable-background:accumulate;font-family:Sans;-inkscape-font-specification:Sans"
     d="m 274.76189,231.53899 0,18.46502 20.66016,0 0,-18.46502 c 0.16893,-11.90021 -20.52707,-11.59893 -20.66016,0 z"
     id="line11-9"
     inkscape:connector-curvature="0"
     sodipodi:nodetypes="ccccc" />
  <path
     inkscape:connector-curvature="0"
     d="m 358.97111,314.66287 -147.77273,0 0,20.31875 c 0,16.62443 7.38864,31.40171 20.31875,41.56108 l 59.71169,16.36645 47.42358,-16.36645 c 12.93008,-10.15937 20.31871,-24.93665 20.31871,-41.56108 z m -18.47155,23.08949 -18.47163,4.61789 0,-9.23579 18.47163,0 z m -92.358,4.61789 -18.47159,-4.61789 0,-4.6179 18.47159,0 z"
     id="path13-8"
     sodipodi:nodetypes="ccscccsccccccccccc"
     style="color:#000000;fill:#2c2c2c;fill-opacity:1;fill-rule:nonzero;stroke:none;stroke-width:10;marker:none;visibility:visible;display:inline;overflow:visible;enable-background:accumulate" />
</svg>

<svg width="580" height="580" viewBox="0 0 580 580" fill="none" xmlns="http://www.w3.org/2000/svg">
<path d="M81.6562 386.25C118.017 465.163 197.571 519.469 290.688 519.469C383.799 519.469 463.399 465.156 499.781 386.25H81.6562Z" fill="#BFBFBF"/>
<path d="M163 362.188C149.197 372.923 129.238 376 116.969 376C105.145 376 86.213 373.128 72.5 363.312C76.6271 375.612 81.7737 387.434 87.8125 398.688C98.2623 402.353 109.168 403.594 116.969 403.594C129.238 403.594 149.197 400.517 163 389.781C176.803 400.517 196.73 403.594 209 403.594C209.82 403.594 210.585 403.575 211.375 403.562C235.706 403.193 246.087 397.24 255 389.812C255.431 390.148 255.87 390.461 256.312 390.781C258.527 392.385 260.903 393.809 263.344 395.062C264.32 395.564 265.281 396.019 266.281 396.469C266.871 396.734 267.466 396.971 268.062 397.219C268.48 397.392 268.892 397.585 269.312 397.75C272.375 398.953 275.493 399.926 278.594 400.719C280.655 401.246 282.709 401.694 284.719 402.062C285.724 402.247 286.705 402.415 287.688 402.562C289.652 402.858 291.574 403.086 293.406 403.25C295.239 403.414 296.978 403.512 298.625 403.562C299.448 403.588 300.264 403.594 301.031 403.594C301.798 403.594 302.583 403.588 303.406 403.562C305.044 403.513 306.804 403.412 308.625 403.25C308.635 403.249 308.646 403.251 308.656 403.25C310.489 403.086 312.379 402.858 314.344 402.562C315.326 402.415 316.339 402.247 317.344 402.062C319.354 401.694 321.377 401.246 323.438 400.719C326.529 399.928 329.664 398.949 332.719 397.75C334.755 396.951 336.766 396.065 338.719 395.062C341.159 393.809 343.504 392.385 345.719 390.781C346.162 390.461 346.6 390.148 347.031 389.812C347.463 390.148 347.901 390.461 348.344 390.781C350.558 392.385 352.903 393.809 355.344 395.062C357.296 396.065 359.308 396.951 361.344 397.75C364.398 398.949 367.534 399.928 370.625 400.719C372.686 401.246 374.709 401.694 376.719 402.062C377.724 402.247 378.737 402.415 379.719 402.562C381.585 402.843 383.408 403.057 385.156 403.219C385.25 403.228 385.344 403.242 385.438 403.25C385.501 403.256 385.562 403.244 385.625 403.25C387.389 403.404 389.067 403.514 390.656 403.562C391.48 403.588 392.264 403.594 393.031 403.594C405.301 403.594 425.259 400.548 439.062 389.812C452.866 400.548 472.793 403.594 485.062 403.594C486.881 403.594 488.889 403.524 491 403.375C496.388 393.881 501.139 383.978 505.156 373.688C497.744 375.373 490.615 376 485.062 376C472.793 376 452.866 372.923 439.062 362.188C425.259 372.923 405.301 376 393.031 376C391.507 376 389.86 375.947 388.125 375.844C388.054 375.84 387.977 375.848 387.906 375.844C386.214 375.739 384.464 375.564 382.625 375.344C378.815 374.888 374.747 374.179 370.625 373.125C368.897 372.683 367.135 372.159 365.406 371.594C363.011 370.811 360.637 369.919 358.312 368.875C356.312 367.976 354.359 366.986 352.469 365.875C351.524 365.319 350.595 364.737 349.688 364.125C349.234 363.819 348.787 363.508 348.344 363.188C347.901 362.867 347.463 362.523 347.031 362.188C346.169 362.858 345.282 363.513 344.375 364.125C343.468 364.737 342.539 365.319 341.594 365.875C339.704 366.986 337.751 367.976 335.75 368.875C333.749 369.774 331.714 370.577 329.656 371.281C327.598 371.985 325.498 372.598 323.438 373.125C319.316 374.179 315.248 374.888 311.438 375.344C309.532 375.571 307.715 375.739 305.969 375.844C305.096 375.896 304.23 375.944 303.406 375.969C302.583 375.994 301.798 376 301.031 376C299.498 376 297.84 375.949 296.094 375.844C294.347 375.739 292.499 375.571 290.594 375.344C286.783 374.888 282.716 374.179 278.594 373.125C276.533 372.598 274.464 371.985 272.406 371.281C270.019 370.465 267.649 369.487 265.344 368.406C263.675 367.624 262.025 366.808 260.438 365.875C259.492 365.319 258.564 364.737 257.656 364.125C257.203 363.819 256.755 363.508 256.312 363.188C255.87 362.867 255.431 362.523 255 362.188C254.137 362.858 253.251 363.513 252.344 364.125C251.436 364.737 250.508 365.319 249.562 365.875C247.672 366.986 245.72 367.976 243.719 368.875C241.718 369.774 239.683 370.577 237.625 371.281C235.567 371.985 233.498 372.598 231.438 373.125C227.316 374.179 223.248 374.888 219.438 375.344C217.532 375.571 215.684 375.739 213.938 375.844C213.064 375.896 212.198 375.944 211.375 375.969C210.552 375.994 209.767 376 209 376C196.73 376 176.803 372.923 163 362.188Z" fill="#2C2C2C"/>
<path d="M152.688 418C139.875 427.965 121.782 431.319 109.438 431.75C116.368 440.581 123.929 448.882 132.062 456.594C141.32 454.08 147.283 450.128 152.688 445.625C166.491 456.361 186.418 459.406 198.688 459.406C210.957 459.406 230.916 456.361 244.719 445.625C258.522 456.361 278.449 459.406 290.719 459.406C302.988 459.406 322.916 456.361 336.719 445.625C350.522 456.361 370.48 459.406 382.75 459.406C395.02 459.406 414.947 456.361 428.75 445.625C435.015 450.498 442.529 453.763 450.031 455.906C457.895 448.389 465.241 440.32 471.969 431.75C459.625 431.315 441.554 427.958 428.75 418C414.947 428.736 395.02 431.812 382.75 431.812C370.48 431.812 350.522 428.736 336.719 418C322.916 428.736 302.988 431.812 290.719 431.812C278.449 431.812 258.522 428.736 244.719 418C230.916 428.736 210.957 431.812 198.688 431.812C186.418 431.812 166.491 428.736 152.688 418Z" fill="#2C2C2C"/>
<path d="M230.164 142.67L135.484 228.792L69.1875 228.844C67.6027 234.708 66.2498 240.674 65.125 246.719L134.5 247.313L120.719 265.156L62.5312 264.375C61.6517 272.589 61.1875 280.948 61.1875 289.406C61.1875 291.395 61.2004 293.368 61.25 295.344C63.4461 295.352 66.0047 295.372 68 295.375C96.0382 297.034 96.3695 309.919 96.4062 313.25V382.125H147.906C147.412 348.678 147.449 316.112 147.594 283.625L180.915 283.75L260.677 173.522L230.164 142.67ZM349.329 146.102L317.641 174.641L387.687 279.313L390.094 282.969L394.469 283.313L434.562 286.438C433.4 318.064 433.531 350.534 433.531 382.125H485.687V313.25C485.687 309.196 488.502 295.675 518.344 294.719C518.768 294.717 519.329 294.718 519.875 294.719C519.915 292.95 519.937 291.185 519.937 289.406C519.937 280.356 519.38 271.425 518.375 262.656L445.781 261.938L433.625 247.156L516 246.75C514.874 240.695 513.525 234.718 511.938 228.844L418.969 229.313L349.329 146.102Z" fill="#2C2C2C"/>
<path d="M238.906 271.255V305.427H331.264V271.255C331.264 264.79 325.722 259.248 319.257 259.248H250.912C244.447 259.248 238.906 264.79 238.906 271.255Z" fill="#2C2C2C"/>
<path d="M274.762 231.539V250.004H295.422V231.539C295.591 219.639 274.895 219.94 274.762 231.539Z" fill="#2C2C2C"/>
<path d="M358.971 314.663H211.198V334.982C211.198 351.606 218.587 366.383 231.517 376.543L291.229 392.909L338.652 376.543C351.582 366.383 358.971 351.606 358.971 334.982V314.663ZM340.499 337.752L322.028 342.37V333.134H340.499V337.752ZM248.141 342.37L229.67 337.752V333.134H248.141V342.37Z" fill="#2C2C2C"/>
</svg>
